X:50
T: Get Up John
C: Monroe
S: Ricky Skaggs
S: MandoZine TablEdit Archives
Z: TablEdited by John Strong for MandoZine
L: 1/8
Q: 560
M: 4/4
K: C
 [dd][dd] z[dd] [d2d2] dB | A^F E^F D2 A,B, | C2 C2 C2 C2 | CB, A,2 [d4A4D4A,4]
 |: [dB][dd] [dd][dd] [d2d2] dd | de ff fe d2 | [dB][dd] [dd][dd] [d2d2] dA | cA BA E^F [d2A2] |
  [dB][dd] [dd][dd] [d2d2] [dd]d | fe df ed de | fd fe dA cB |1 AD [AE][A^F] [A2D2] [dB][dd] :|2 AD [AE][A^F] [A2D2] [A2D2] |
|: [AE][A^F] [A^F][A^F] [A^F][A^F] [A=F][AE] | [AD]E ^FA dc BA | A2 E^F A2 AB | AF (3EFE [A2D2] [A2D2] |
 [AE][A^F] [A^F][A^F] [A^F][A^F] [A=F][AE] | [AD]E ^FA dc BA | A2 E^F A2 AB | AF (3EFE [A2D2] [A2D2] :|
 AD [AE][A^F] [A2D2] [A2D2] | CB, A,C B,A, CB, | A,C B,A, CB, A,A, |
 CB, A,C B,A, CB, | A,B, A,2 A,2 A,A, | CB, A,C B,A, CB, | A,C B,A, CB, A,A, |
 CB, A,C B,A, CB, | A,B, A,2 A,2 A,A, | B,C CC CC CC | B,C CC CC CC |
 B,C CC B,C CC | CB, A,2 A,2 A,A, | CB, A,C B,A, CB, | A,C B,A, CB, A,A, |
 CB, A,C B,A, CB, | A,B, A,2 A,4 | [dd][dd] [dd][dd] [d2d2] [dd][dd] | [dd][fd] z[fd] [f2d2] [f2d2] |
 [fd][fd] [fd][fd] z[fd] [fd]A | cA BA F^F A2 | [dB][dd] [dd][dd] [d2d2] dd | fe df ed de |
 fd fe dA cB | AD F^F [A2D2] [dB][dd] | [d2d2] [d2d2] [d2d2] [dd][dd] | z[df] z[df] [d2f2] [df][df] |
 z[df] [d2f2] [df][df] z[df] | [d2f2] [df][df] z[df] [d2f2] | [dd][dd] [df][dd] [dd][dd] [df][dd] |
 [dd][dd] [df][dd] [dd][dd] [df][dd] | [d2f2] [d2f2] [df][de] [dd][dA] | A^F E^F [A2D2] [A2D2] |
 [AF]^F [A^F][A^F] [A^F][A^F] [A^F][A^F] | [A^F][A^F] [A^F][A^F] dA [A^F][A^F] | dA [A^F][A^F] dA [A^F][A^F] |
 [A^F][AD] [A=F][AE] [A2D2] [d2A2D2] | [AF]^F [A^F][A^F] [A^F]D [A=F][AE] | [AD][AE] [A^F]A dA cB |
 [d2A2] [AF]^F [d2A2] AB | AF [(3AE]FE [A2D2] [A2D2] | [AE]^F [A^F][A^F] A[A^F] [A=F][AE] |
 [AD]F ^FA a2 D2 | [AF]^F [A^F][A^F] [A^F]A cB | AF [(3AE]FE [A2D2] [A2D2] | [AF]^F [A^F][A^F] [A=F]^F [A^F][A^F] |
 [A2A2] [AA][AA] [AA][AA] [d2A2A2] | [AF]^F [A^F][A^F] [A^F]A cB | AF [(3AE]FE [A2D2] [D2A,2] |
 [DB,]C [DC][DC] [DC][DC] [D2C2] | [D2C2] [D2C2] [DC][DC] [DC][DC] | [DB,]C [DC][DC] [DB,]C [DC][DC] |
 [DC][DB,] [D2A,2] [D2A,2] [D2A,2] | [DB,]C [DC][DC] [D2C2] [D2C2] | [DC][DC] [DC][DC] [D2C2] [D2C2] |
 [DB,]C [DC][DC] [DB,]C [DC][DC] | [DC][DB,] [D2A,2] [D2A,2] [D2A,2] | [D2C2] [D2C2] [D2C2] [D2C2] |
 [D2C2] [D2C2] [D2C2] [D2C2] | [D2C2] [D2C2] [D2C2] [D2C2] | [D2B,2] [D2A,2] [D2A,2] [D2A,2] |
 [ADC][ADC] [A2D2C2] [ADC][ADC] [A2D2C2] | [ADC][ADC] [A2D2C2] [ADC][ADC] [A2D2C2] |
 [ADC][ADC] [A2D2C2] [ADC][ADC] [A2D2C2] | [ADC][ADB,] [A2D2A,2] [A4D4A,4] | [dB][dd] [dd][dd] [d2d2] dd |
 de ff fe d2 | [dB][dd] [dd][dd] [d2d2] dA | cA BA E^F [d2A2] | [dB][dd] [dd][dd] [d2d2] [dd]d |
 fe df ed de | fd fe dA cB | AD [AE][A^F] [A2D2] [dd][dd] | [d3d3][dd] z2 [d2f2] |
 [d3f3][df] z2 [d2f2] | z[df] z2 [d3f3][df] | z2 [d3f3][df] z2 | [d3f3][df] z2 [d2f2] |
 z[df] z2 [d3f3][df] | [dd][dd] [df][dd] [dd][dd] [df][dd] | [d2c2] [d2B2] [d2A2] [A2^F2] |
 [d2A2] [AE]^F [A2D2] [AE]^F | [d2A2] [A2A2] [d2A2] [A2A2] | [d2A2] [A2^F2] [d2A2] [A2^F2] |
 [dc][dA] [dB][dA] FE [A2D2] | [AE][A^F] [A^F][A^F] [A^F][A^F] [A=F][AE] | [AD]E ^FA dc BA |
 A2 E^F A2 AB | AF (3EFE [A2D2] [AE]^F | [d2A2] [dAE]^F [d2A2] [dAE]^F | [d2A2] [dAE]^F [d2A2] [dAE]^F |
 [d2A2] [dAE]^F [d2A2] [dAE]^F | [d2A2] [dAE]^F [d2A2] [dAE]^F | [d2A2] [dAE]^F [d2A2] [dAE]^F |
 [d2A2] [dAE]^F [d2A2] [dAE]^F | [d2A2] [dAE]^F [d2A2] AB | AF (3EFE D4 | [dd][dd] [dd][dd] [d2d2] dB |
 A^F E^F D2 [DA,][DB,] | [D2C2] [D2C2] [D2C2] [D2C2] | [DC][DB,] [D2A,2] [d4A4D4A,4] |
